SF_Symbols/arrow.3.trianglepath.svg

<?xml version="1.0" encoding="UTF-8"?>
<svg xmlns="http://www.w3.org/2000/svg" xmlns:xlink="http://www.w3.org/1999/xlink" width="24" height="24" viewBox="0 0 24 24" version="1.1">
<g id="surface1">
<path style=" stroke:none;fill-rule:nonzero;fill:rgb(100%,100%,100%);fill-opacity:1;" d="M 7.011719 15.019531 C 7.226562 14.972656 7.390625 14.855469 7.5 14.667969 C 7.609375 14.480469 7.636719 14.277344 7.574219 14.0625 L 6.699219 10.59375 C 6.601562 10.238281 6.429688 9.992188 6.1875 9.855469 C 6.054688 9.769531 5.917969 9.726562 5.769531 9.71875 C 5.632812 9.710938 5.472656 9.734375 5.292969 9.78125 L 1.863281 10.75 C 1.636719 10.8125 1.46875 10.9375 1.363281 11.125 C 1.261719 11.3125 1.238281 11.511719 1.300781 11.71875 C 1.359375 11.941406 1.480469 12.109375 1.667969 12.21875 C 1.859375 12.324219 2.066406 12.339844 2.28125 12.269531 L 5.3125 11.375 L 6.042969 14.449219 C 6.089844 14.675781 6.207031 14.84375 6.394531 14.949219 C 6.589844 15.050781 6.796875 15.078125 7.011719 15.019531 Z M 3.980469 20.84375 L 9.5625 20.84375 C 9.804688 20.84375 10.007812 20.765625 10.167969 20.613281 C 10.332031 20.460938 10.417969 20.265625 10.417969 20.03125 C 10.417969 19.796875 10.332031 19.597656 10.167969 19.4375 C 10.007812 19.285156 9.804688 19.207031 9.5625 19.207031 L 3.988281 19.207031 C 3.628906 19.207031 3.335938 19.082031 3.113281 18.832031 C 2.898438 18.582031 2.792969 18.296875 2.792969 17.96875 C 2.792969 17.871094 2.800781 17.769531 2.824219 17.667969 C 2.84375 17.554688 2.882812 17.453125 2.9375 17.355469 L 6.550781 10.886719 L 5.136719 10.050781 L 1.488281 16.550781 C 1.363281 16.78125 1.265625 17.015625 1.199219 17.261719 C 1.136719 17.496094 1.105469 17.734375 1.105469 17.96875 C 1.105469 18.503906 1.21875 18.988281 1.449219 19.425781 C 1.683594 19.863281 2.015625 20.207031 2.449219 20.457031 C 2.878906 20.714844 3.390625 20.84375 3.980469 20.84375 Z M 16.832031 9.800781 L 18.25 8.980469 L 14.46875 2.21875 C 14.203125 1.738281 13.847656 1.378906 13.394531 1.136719 C 12.953125 0.890625 12.484375 0.769531 12 0.769531 C 11.515625 0.769531 11.046875 0.894531 10.59375 1.144531 C 10.148438 1.390625 9.792969 1.746094 9.519531 2.21875 L 6.644531 7.355469 C 6.515625 7.589844 6.476562 7.8125 6.53125 8.019531 C 6.59375 8.230469 6.726562 8.390625 6.925781 8.511719 C 7.136719 8.628906 7.347656 8.65625 7.5625 8.59375 C 7.785156 8.523438 7.953125 8.386719 8.074219 8.175781 L 10.949219 3.019531 C 11.066406 2.8125 11.21875 2.664062 11.40625 2.574219 C 11.59375 2.476562 11.792969 2.425781 12 2.425781 C 12.203125 2.425781 12.390625 2.476562 12.574219 2.574219 C 12.761719 2.664062 12.914062 2.8125 13.03125 3.019531 Z M 16.980469 10.050781 C 17.160156 10.101562 17.320312 10.121094 17.457031 10.113281 C 17.597656 10.109375 17.734375 10.0625 17.875 9.980469 C 18.117188 9.828125 18.289062 9.578125 18.386719 9.238281 L 19.25 5.769531 C 19.3125 5.554688 19.289062 5.355469 19.175781 5.167969 C 19.074219 4.980469 18.914062 4.859375 18.699219 4.8125 C 18.484375 4.757812 18.277344 4.78125 18.082031 4.886719 C 17.894531 4.988281 17.777344 5.15625 17.730469 5.386719 L 17 8.457031 L 13.957031 7.5625 C 13.742188 7.5 13.542969 7.523438 13.355469 7.636719 C 13.167969 7.738281 13.042969 7.898438 12.980469 8.113281 C 12.921875 8.324219 12.949219 8.519531 13.050781 8.707031 C 13.15625 8.894531 13.320312 9.019531 13.542969 9.082031 Z M 12.636719 20.84375 L 20.011719 20.84375 C 20.601562 20.84375 21.109375 20.714844 21.542969 20.457031 C 21.972656 20.207031 22.300781 19.863281 22.53125 19.425781 C 22.765625 18.988281 22.886719 18.503906 22.886719 17.96875 C 22.886719 17.734375 22.855469 17.496094 22.792969 17.261719 C 22.730469 17.023438 22.632812 16.789062 22.5 16.550781 L 19.738281 11.625 C 19.621094 11.402344 19.453125 11.265625 19.238281 11.21875 C 19.023438 11.164062 18.816406 11.195312 18.613281 11.3125 C 18.414062 11.429688 18.28125 11.601562 18.21875 11.824219 C 18.15625 12.039062 18.183594 12.25 18.300781 12.457031 L 21.042969 17.355469 C 21.097656 17.453125 21.140625 17.554688 21.167969 17.667969 C 21.195312 17.769531 21.207031 17.871094 21.207031 17.96875 C 21.207031 18.296875 21.09375 18.582031 20.863281 18.832031 C 20.640625 19.082031 20.351562 19.207031 19.988281 19.207031 L 12.636719 19.207031 Z M 14.886719 23.324219 C 15.046875 23.488281 15.234375 23.570312 15.449219 23.5625 C 15.664062 23.5625 15.847656 23.484375 16 23.324219 C 16.160156 23.171875 16.238281 22.984375 16.238281 22.761719 C 16.238281 22.546875 16.15625 22.359375 15.988281 22.199219 L 13.699219 20.03125 L 15.988281 17.863281 C 16.15625 17.703125 16.238281 17.515625 16.238281 17.300781 C 16.238281 17.078125 16.160156 16.890625 16 16.738281 C 15.847656 16.578125 15.664062 16.5 15.449219 16.5 C 15.234375 16.492188 15.046875 16.574219 14.886719 16.738281 L 12.324219 19.21875 C 12.074219 19.46875 11.949219 19.738281 11.949219 20.03125 C 11.949219 20.324219 12.074219 20.589844 12.324219 20.832031 Z M 14.886719 23.324219 "/>
</g>
</svg>

<svg xmlns="http://www.w3.org/2000/svg" width="24" height="24"><path style="stroke:none;fill-rule:nonzero;fill:#fff;fill-opacity:1" d="M7.012 15.02a.708.708 0 0 0 .488-.352.75.75 0 0 0 .074-.605l-.875-3.47c-.097-.355-.27-.6-.511-.738a.843.843 0 0 0-.418-.136c-.16-.004-.32.015-.477.062l-3.43.969a.787.787 0 0 0-.5.375.75.75 0 0 0-.062.594c.058.222.18.39.367.5.187.105.41.12.613.05l3.031-.894.731 3.074c.035.211.164.395.352.5.187.102.41.13.617.07ZM3.98 20.844h5.583a.83.83 0 0 0 .605-.23.763.763 0 0 0 .25-.583.8.8 0 0 0-.25-.593.846.846 0 0 0-.605-.231H3.987c-.36 0-.652-.125-.875-.375a1.28 1.28 0 0 1-.32-.863c0-.098.008-.2.031-.301.02-.11.059-.215.114-.313l3.613-6.468-1.414-.836-3.649 6.5c-.125.23-.222.465-.289.71a3.06 3.06 0 0 0 .25 2.165c.235.437.567.781 1 1.031.43.258.942.387 1.531.387ZM16.832 9.8l1.418-.82-3.781-6.762a2.607 2.607 0 0 0-1.074-1.082A2.818 2.818 0 0 0 12 .77c-.484 0-.953.125-1.406.375-.446.246-.801.601-1.074 1.074L6.645 7.355c-.13.235-.168.457-.114.665.063.21.196.37.395.492.21.117.422.144.636.082a.864.864 0 0 0 .512-.418L10.95 3.02c.117-.208.27-.356.457-.446.188-.097.387-.148.594-.148.203 0 .39.05.574.148.188.09.34.239.457.446Zm.148.25c.18.05.34.07.477.062a.879.879 0 0 0 .418-.133c.242-.152.414-.402.512-.742l.863-3.468a.71.71 0 0 0-.074-.602.681.681 0 0 0-.477-.356.81.81 0 0 0-.617.075.682.682 0 0 0-.352.5L17 8.457l-3.043-.895a.71.71 0 0 0-.602.075.765.765 0 0 0-.375.476.77.77 0 0 0 .075.602c.11.183.285.316.488.367Zm-4.343 10.793h7.375c.59 0 1.097-.13 1.531-.387.43-.25.758-.594.988-1.031.235-.438.356-.922.356-1.457a2.903 2.903 0 0 0-.387-1.418l-2.762-4.926c-.117-.223-.285-.36-.5-.406a.8.8 0 0 0-.625.094.828.828 0 0 0-.394.511.8.8 0 0 0 .082.633l2.742 4.898c.055.098.098.2.125.313.11.414-.008.855-.305 1.164-.222.25-.511.375-.875.375h-7.351Zm2.25 2.48c.16.164.347.246.562.238.211 0 .41-.085.551-.238a.75.75 0 0 0 .238-.562.749.749 0 0 0-.25-.563L13.7 20.031l2.29-2.168a.741.741 0 0 0 .25-.562.73.73 0 0 0-.239-.563.72.72 0 0 0-.55-.238.723.723 0 0 0-.563.238l-2.563 2.48c-.25.25-.375.52-.375.813 0 .293.125.559.375.801Zm0 0"/></svg>
